packages/sources/icons/src/vitamix/visa-fill.svg

<svg width="16" height="16" viewBox="0 0 16 16" xmlns="http://www.w3.org/2000/svg"><path d="M0.666748 2.66666H15.3334V3.99999H0.666748V2.66666ZM0.666748 12H15.3334V13.3333H0.666748V12ZM13.0814 9.94266L12.9654 9.36266H11.6661L11.4594 9.93799L10.4181 9.93999C11.0881 8.33599 11.5847 7.14666 11.9087 6.37466C11.9934 6.17266 12.1441 6.06999 12.3654 6.07132C12.5347 6.07266 12.8114 6.07266 13.1954 6.07132L14.0001 9.94132L13.0814 9.94332V9.94266ZM11.9587 8.56799H12.7961L12.4827 7.11466L11.9587 8.56799ZM5.24808 6.07066L6.29475 6.07199L4.67675 9.94266L3.61675 9.94199C3.25875 8.56199 2.99541 7.53799 2.82741 6.87199C2.77608 6.66732 2.67408 6.52466 2.47675 6.45732C2.30141 6.39732 2.00941 6.30399 1.60008 6.17799V6.07132H3.27275C3.56208 6.07132 3.73075 6.21132 3.78541 6.49799L4.19875 8.69066L5.24808 6.07066ZM7.73275 6.07199L6.90608 9.94199L5.90942 9.94066L6.73608 6.07066L7.73275 6.07199ZM9.75408 5.99999C10.0514 5.99999 10.4274 6.09199 10.6434 6.17799L10.4687 6.98066C10.2734 6.90199 9.95208 6.79599 9.68208 6.80066C9.28875 6.80666 9.04608 6.97132 9.04608 7.12932C9.04608 7.38532 9.46741 7.51466 9.90208 7.79532C10.3974 8.11532 10.4621 8.40199 10.4561 8.71399C10.4494 9.36132 9.90208 9.99999 8.74675 9.99999C8.21941 9.99199 8.02941 9.94799 7.60008 9.79599L7.78141 8.95866C8.21875 9.14132 8.40475 9.19932 8.77808 9.19932C9.12142 9.19932 9.41541 9.06132 9.41808 8.82066C9.41941 8.64932 9.31475 8.56466 8.93008 8.35266C8.54542 8.14132 8.00675 7.84866 8.01342 7.25932C8.02208 6.50599 8.73808 5.99999 9.75342 5.99999H9.75408Z"/></svg>

<svg width="16" height="16" xmlns="http://www.w3.org/2000/svg"><path d="M.667 2.667h14.666V4H.667V2.667Zm0 9.333h14.666v1.333H.667V12ZM13.08 9.943l-.116-.58h-1.299l-.207.575-1.041.002 1.49-3.565a.455.455 0 0 1 .457-.304c.17.002.446.002.83 0L14 9.941l-.919.002ZM11.96 8.568h.837l-.313-1.453-.524 1.453ZM5.248 6.071l1.047.001-1.618 3.87h-1.06a522.16 522.16 0 0 1-.79-3.07c-.051-.205-.153-.347-.35-.415-.176-.06-.468-.153-.877-.279v-.107h1.673c.289 0 .458.14.512.427L4.2 8.691l1.049-2.62Zm2.485.001-.827 3.87-.997-.001.827-3.87.997.001ZM9.754 6c.297 0 .673.092.89.178l-.175.803c-.196-.079-.517-.185-.787-.18-.393.006-.636.17-.636.328 0 .256.421.386.856.666.495.32.56.607.554.919-.007.647-.554 1.286-1.71 1.286-.527-.008-.717-.052-1.146-.204l.181-.837c.438.182.624.24.997.24.343 0 .637-.138.64-.378.001-.172-.103-.256-.488-.468-.385-.212-.923-.504-.917-1.094C8.022 6.506 8.738 6 9.753 6h.001Z"/></svg>
